X:375
T:Ian Powrie
R:Reel
O:Shetland Islands, Scotland
S:Richard Robinson
Z:Transcription:Richard Robinson(?), Chords:Mike Long
M:C|
L:1/8
K:D
"D"D2DF AFF2|d2Ad fdd2|"G"dBBd "D"dAAd|"A"ceAc dBAF|\
"D"D2DF AFF2|d2Ad fdd2|
"G"dBBd "D"dAAd|"A"ceAc "D"d4:|\
|:"D"f2gf feef|"G"d2Bd "D"dAAd|"G"dBBd "D"dAAd|
"A"ceAc egfe|\
"D"f2gf feef|"G"d2Bd "D"dAAd|"G"dBBd "D"dAAd|"A"ceAc "D"d4 :|
